packages/core/src/svgs/tokens/mono/AUDIO.svg

<svg width="24" height="24" viewBox="0 0 24 24" fill="none" xmlns="http://www.w3.org/2000/svg">
<path d="M2.64277 15.926C2.14284 15.926 1.83574 15.4045 2.09285 14.9903L9.66317 2.66358C9.72249 2.5707 9.80448 2.49426 9.90113 2.4413C9.99779 2.38836 10.1064 2.3606 10.2166 2.3606C10.3269 2.3606 10.4354 2.38836 10.5322 2.4413C10.6289 2.49426 10.7107 2.5707 10.7702 2.66358L21.9113 20.7037C22.1613 21.118 21.8542 21.6393 21.3471 21.6393H5.73516C5.23523 21.6393 4.921 21.1108 5.17811 20.6966L7.12067 17.6542C7.17964 17.5619 7.26096 17.4861 7.3571 17.4336C7.45325 17.3812 7.56108 17.3539 7.67058 17.3542H12.9555C13.0677 17.3571 13.1785 17.3294 13.2761 17.2744C13.3739 17.2193 13.4548 17.1388 13.5104 17.0415C13.5661 16.944 13.5944 16.8333 13.5922 16.7212C13.5901 16.609 13.5576 16.4995 13.4983 16.4044L10.7487 11.9335C10.6925 11.8421 10.6137 11.7664 10.5199 11.7139C10.4262 11.6614 10.3206 11.6339 10.2131 11.6339C10.1056 11.6339 9.99995 11.6614 9.90613 11.7139C9.81231 11.7664 9.73366 11.8421 9.6775 11.9335L7.41349 15.6473C7.35203 15.7356 7.26963 15.8073 7.17364 15.856C7.07767 15.9046 6.97112 15.9286 6.86357 15.926H2.6499H2.64277Z" fill="white"/>
</svg>

<svg xmlns="http://www.w3.org/2000/svg" width="24" height="24" fill="none" viewBox="0 0 24 24">
    <path fill="#fff" d="M2.643 15.926c-.5 0-.807-.521-.55-.936l7.57-12.326a.657.657 0 0 1 1.107 0l11.141 18.04c.25.414-.057.935-.564.935H5.735c-.5 0-.814-.528-.557-.942l1.943-3.043a.65.65 0 0 1 .55-.3h5.285a.62.62 0 0 0 .542-.95l-2.75-4.47a.63.63 0 0 0-1.07 0l-2.265 3.713a.65.65 0 0 1-.55.279z"/>
</svg>
